packages/foundations/assets/icons/functional/images/audio & video/skip_backward_12.svg

<svg width="12" height="12" viewBox="0 0 12 12" fill="none" xmlns="http://www.w3.org/2000/svg">
<g clip-path="url(#clip0_2202_560)">
<path fill-rule="evenodd" clip-rule="evenodd" d="M9 2.388C9.16215 2.38853 9.31751 2.45318 9.43217 2.56783C9.54683 2.68249 9.61147 2.83785 9.612 3V9.012C9.612 9.342 9.353 9.612 9.012 9.612C8.89544 9.6117 8.78123 9.57917 8.682 9.518L4.925 6.812C4.79052 6.72209 4.68028 6.6004 4.60405 6.45772C4.52781 6.31504 4.48793 6.15577 4.48793 5.994C4.48793 5.83223 4.52781 5.67296 4.60405 5.53028C4.68028 5.3876 4.79052 5.26592 4.925 5.176L8.66 2.494C8.76063 2.42561 8.87833 2.38871 9 2.388ZM8.412 4.106L5.87 6L8.412 7.894V4.106ZM3.588 8.412V3.588C3.588 3.258 3.318 2.988 2.988 2.988C2.658 2.988 2.388 3.258 2.388 3.588V8.412C2.388 8.742 2.658 9.012 2.988 9.012C3.318 9.012 3.588 8.742 3.588 8.412Z" fill="#1A1C1F"/>
</g>
<defs>
<clipPath id="clip0_2202_560">
<rect width="12" height="12" fill="white"/>
</clipPath>
</defs>
</svg>

<svg xmlns="http://www.w3.org/2000/svg" width="12" height="12" fill="none"><g clip-path="url(#a)"><path fill="#1A1C1F" fill-rule="evenodd" d="M9 2.388A.614.614 0 0 1 9.612 3v6.012c0 .33-.259.6-.6.6a.63.63 0 0 1-.33-.094L4.925 6.812a.984.984 0 0 1 0-1.636L8.66 2.494A.6.6 0 0 1 9 2.388m-.588 1.718L5.87 6l2.542 1.894zM3.588 8.412V3.588c0-.33-.27-.6-.6-.6s-.6.27-.6.6v4.824c0 .33.27.6.6.6s.6-.27.6-.6" clip-rule="evenodd"/></g><defs><clipPath id="a"><path fill="#fff" d="M0 0h12v12H0z"/></clipPath></defs></svg>
